X:305
T: Calleen Das Down
T: Cail\'in Deas Donn (Pretty Brown Girl)
N: O'Farrell's Pocket Companion v.4 (Sky ed. p.136)
N: "Irish"
M: 6/8
L: 1/8
R: jig
Q: 320
K: D
A| F2d GEE| FDD GEC| F2d GEE| FDD D2A |
F2d GEE| FDD GEC| F2d GEE| FDD D2 :|
A| dBB cAA| BGG AFD| ded cAA| BGG A2e|
fed cAA| ABG AFD| F2d GEE| FDD D2 :|
